X:66
T:Reel 66
M: 4/4
L:1/8
K: D Major
D2A,DFDD2|FAdABAFD|G2BGF2AF|EFEDECA,C|D2A,DFDA,D|FAdABAFA|B2dBAFDF|EDCED2:|fgafbfed|cBcdefag|fdedcBAB|fgedBAF2|fgfabgec|dcBAFAdB|ABdfgfed|cAECD2:|.abc